assets/icons/uE033-write.svg

<svg xmlns="http://www.w3.org/2000/svg" width="896" height="1232" viewBox="0 0 896 1232"><path d="M841 111q55 55 55 133t-55 133L340 876q-12 10-27 15L69 950q-4 2-13 2-22 0-40-16-22-23-14-53l59-244q5-15 15-27l499-501q57-55 133-55 78 0 133 55zM56 896l226-55-171-171zm253-68l457-456-186-186-456 457zm492-491q39-38 39-93t-39-93q-37-39-93-39-54 0-93 39l-16 15 187 187z"/></svg>

<?xml version="1.0" encoding="UTF-8" standalone="no"?><svg   xmlns:svg="http://www.w3.org/2000/svg"   xmlns="http://www.w3.org/2000/svg"   version="1.1"   width="896"   height="1232"   viewBox="0 0 896 1232">  <path     d="M841 111Q896 166 896 244T841 377L340 876Q328 886 313 891L69 950Q65 952 56 952Q34 952 16 936Q-6 913 2 883L61 639Q66 624 76 612L575 111Q632 56 708 56Q786 56 841 111zM56 896L282 841L111 670zM309 828L766 372L580 186L124 643zM801 337Q840 299 840 244T801 151Q764 112 708 112Q654 112 615 151L599 166L786 353z"     id="icon68" /></svg>
